X:1
T:Phares, 10.10.10.10 D
T:John Robson Sweney, 1890
T:Phares, 10.10.10.10 D
T:Public Domain
C:John Robson Sweney, 1890
Z:Public Domain
%%score ( 1 2 ) ( 3 4 )
L:1/8
M:9/8
K:Bb
V:1 treble 
V:2 treble 
V:3 bass 
V:4 bass 
V:1
 [DF][^C=E][DF] | [EG]3 [DF]2 [FB] [FB][EA][DB] | [Fc]6 [EF][EG][EF] | [Ec]3 [Fd]2 [Ec] | %4
 [DB][FA][EG] | [DF]6 [DF][EG][DF] | [Fd]3 [DB]2 [DB] [DB][EA][F_A] | [EG]6 [Ec][EB][EG] | %8
 [DF]3 [FB]2 [FB] [FA][FB][Fc] | [FB]6 [^Fd][Fd][Fd] | [^Fd]3 [FA]2 [Ac] [Ac][GB][FA] | %11
 [GB]6 [=Ec][Ec][Ec] | [=Ec]3 [EG]2 [GB] [GB][FA][EG] | (F3 E3) [DF][EG][DF] | %14
 [Fd]3 [DB]2 [DB] [DB][EA][F_A] | [EG]6 [Ec][EB][EG] | [DF]3 [FB]2 [FB] [FA][FB][Fc] | [FB]6 |] %18
V:2
 x3 | x9 | x9 | x6 | x3 | x9 | x9 | x9 | x9 | x9 | x9 | x9 | x9 | A6 x3 | x9 | x9 | x9 | x6 |] %18
V:3
 [B,,B,][B,,B,][B,,B,] | [B,,B,]3 [B,,B,]2 [D,B,] [D,B,][C,F,](F,/B,/) | %2
 [F,A,]6 [F,A,][F,A,][F,A,] | [F,A,]3 [F,B,]2 F, | [B,,F,][B,,B,][B,,B,] | %5
 [B,,B,]6 [B,,B,][B,,B,][B,,B,] | [B,,B,]3 [B,,F,]2 [B,,F,] [B,,F,][C,F,][D,B,] | %7
 [E,B,]6 [E,G,][E,G,][E,B,] | [F,B,]3 [F,D]2 [F,D] [F,C][F,D][F,E] | [B,,D]6 z3 | %10
 [D,A,][D,A,][D,A,] [D,D][D,D][D,D] [D,D][D,D][D,D] | [G,D]6 z3 | %12
 [C,G,][C,G,][C,G,] [C,C][C,C][C,C] [C,C][C,C][C,C] | [F,C]6 [B,,B,][B,,B,][B,,B,] | %14
 [B,,B,]3 [B,,F,]2 [B,,F,] [B,,F,][C,F,][D,B,] | [E,B,]6 [E,G,][E,G,][E,B,] | %16
 [F,B,]3 [F,D]2 [F,D] [F,C][F,D][F,E] | [B,,D]6 |] %18
V:4
 x3 | x8 B,, | x9 | x5 F, | x3 | x9 | x9 | x9 | x9 | x9 | x9 | x9 | x9 | x9 | x9 | x9 | x9 | x6 |] %18

